X:1
T:Title
%%score { ( 1 3 5 ) | ( 2 4 ) }
L:1/8
M:4/4
K:G
V:1 treble nm="Grand Piano"
V:3 treble 
V:5 treble 
V:2 treble 
V:4 treble 
V:1
 z4 z2 z[Q:1/4=86] D | BcAB GFGB | d8 | BcAB GFGB | d8 |[M:3/4] [Gd][A^d] [^Ge][GB] [B=d]2 | %6
[M:1/4] [Ac][Ac] |[M:4/4] [^GB][GB][Gc]G B2 AA | EFGA BEFG |[M:5/4] A4 d6 |[M:4/4] B2 z2 z4 | %11
 c2 c2 c2 D2 | B2 z2 z4 | A2 A2 A2 _B2 | B2 z2 z4 | e2 [de]2 [ce]2 z2 | %16
 .[GB]2 AG [G,CE]2 [A,CDF]2 |[M:7/8] [G,B,DG]-[G,B,DG]-[G,B,DG]- [G,B,DG]3 z |] %18
V:2
 z4 z2 z D, | [G,DG][G,EG][G,CF][G,DF] [G,B,D][A,CD][G,B,D][G,DG] | CB,C^G, A,ED[D,C] | %3
 [G,DG][G,EG][G,CF][G,DF] [G,B,D][A,CD][G,B,D][G,DG] | CB,C^G, A,ED[D,C] | %5
[M:3/4] [G,B,][=F,B,] [E,B,][E,E][K:treble] [^G,=F]2 |[M:1/4] [A,E][K:bass][A,E] | %7
[M:4/4] [E,D][E,D][E,E][E,B,E] [A,DE]2 [A,CE][A,CE] | %8
 [G,A,^C][F,A,C][E,A,C][F,A,C] [G,A,C][G,A,C][F,A,C][E,A,C] |[M:5/4] C4- [=D,F,CD]6 | %10
[M:4/4] G,, [D,G,]2 [D,G,B,] B,, [D,G,B,]2 [D,G,B,] | A,, [E,G,]2 [E,G,] D,, [D,F,]2 [D,F,] | %12
 G,,[D,G,]B,,[^D,F,B,] E,, [E,G,B,]2 [E,G,B,] | A,, [G,A,]2 [G,A,] D,, [D,F,]2 [D,F,] | %14
 G,, [D,G,]2 [D,G,B,] B,, [D,G,B,]2 [D,G,B,] | C,E,B,,E, A,,E,[K:treble]BA | z DCB, D,2 D,2 | %17
[M:7/8] G,,-G,,-G,,- G,,3 z |] %18
V:3
 x8 | x8 | FGA=F ^FcBD | x8 | FGA=F ^FcB[Ad] |[M:3/4] x6 |[M:1/4] x2 |[M:4/4] x8 | x8 | %9
[M:5/4] x10 |[M:4/4] z2 DB AGFG | z2 z C z2 z C | z B,^DB AGFG | z2 z ^C z2 z =C | z2 DB AGFG | %15
 z [G,C] z [^G,D] z [A,C]dc | x8 |[M:7/8] x7 |] %18
V:4
 x8 | x8 | D,8 | x8 | D,8 |[M:3/4] x4[K:treble] x2 |[M:1/4] x[K:bass] x |[M:4/4] x8 | x8 | %9
[M:5/4] [^D,G,]4 z2 z4 |[M:4/4] x8 | x8 | x8 | x8 | x8 | x6[K:treble] x2 | D,4 z4 |[M:7/8] x7 |] %18
V:5
 x8 | x8 | x8 | x8 | x8 |[M:3/4] x6 |[M:1/4] x2 |[M:4/4] x8 | x8 |[M:5/4] x10 |[M:4/4] z .B,3 z4 | %11
 z .C3 z .C3 | x8 | z .^C3 z .=C3 | z .B,3 z4 | x8 | x8 |[M:7/8] x7 |] %18

